X:1
T:Don’t Forget the Sabbath
T:Don’t Forget the Sabbath
T:William Batchelder Bradbury
T:Frances Jane (Fanny) Crosby, 1871
T:Public Domain Courtesy of the Cyber Hymnal™
T:Public Domain Courtesy of the Cyber Hymnal™
C:William Batchelder Bradbury
Z:Public Domain
Z:Courtesy of the Cyber Hymnal™
%%score ( 1 2 ) ( 3 4 )
L:1/8
Q:1/4=110
M:6/8
K:Bb
V:1 treble 
V:2 treble 
V:3 bass 
V:4 bass 
V:1
 [DB]2 [DB] [FA]2 [EG] | [DF]3 [B,D]2 [B,D] | [A,C]2 [B,D] [CE]2 [EG] | ([EG]3 [DF]2) [DF] | %4
w: 1.~Don’t for- get the|Sab- bath, The|Lord our God hath|blest, * Of|
w: 2.~Keep the Sab- bath|ho- ly, And|wor- ship Him to-|day, * Who|
w: 3.~Day of sac- red|plea- sure! Its|gold- en hours we’ll|spend * In|
 [DB]2 [DB] [FA]2 [EG] | [DF]3 [B,D]2 [B,D] | [A,C]2 [A,F] [CA]2 [B,G] | [A,F]3- [A,F]2 [A,F] | %8
w: all the week the|bright- est, Of|all the week the|best; * It|
w: said to His di-|sci- ples, “I|am the liv- ing|way”; * And|
w: thank- ful hymns to|Je- sus, The|child- ren’s dear- est|friend; * O|
 [CA]2 [CA] (AG)[EA] | [DB]3 [DF]2 [FB] | [Fc]2 [Fc] (cB)[Fc] | [Fd]3- [Fd]2 [Fd] | %12
w: brings re- pose * from|la- bor, It|tells of joy * di-|vine, * Its|
w: if we meek- * ly|fol- low Our|Sav- ior here * be-|low, * He’ll|
w: gen- tle, lov- * ing,|Sav- ior, How|good and kind * Thou|art, * How|
 [Fd]2 [Fd] [Ec]2 [Ec] | [DB]3 [EG]2 [EG] | [DF]2 [DB] ([CA][B,G])[CA] | [DB]3- [DB]2 z || %16
w: beams of light de-|scend- ing, With|heav’n- ly beau- * ty|shine. *|
w: give us of the|foun- tain Whose|streams e- ter- * nal|flow. *|
w: pre- cious is Thy|prom- ise To|dwell in ev- * ery|heart! *|
"^Refrain" [Fd]2 [Fd] [Ec]2 [Ec] | [DB]2 [DB] [EG]2 [EG] | [DF]2 [B,D] ([A,C][B,D])[CE] | %19
w: |||
w: |||
w: |||
 ([EG]3 [DF]3) | [Fd]2 [Fd] [Ec]2 [Ec] | [DB]2 [DB] [EG]2 [EG] | [DF]2 [DB] [CA]2 [Ec] | [DB]6 |] %24
w: |||||
w: |||||
w: |||||
V:2
 x6 | x6 | x6 | x6 | x6 | x6 | x6 | x6 | x3 E2 x | x6 | x3 F2 x | x6 | x6 | x6 | x6 | x6 || x6 | %17
 x6 | x6 | x6 | x6 | x6 | x6 | x6 |] %24
V:3
 [B,,F,]2 [B,,F,] [B,,F,]2 [B,,B,] | [B,,B,]3 [B,,F,]2 [B,,F,] | %2
w: ~ ~ ~ ~|~ ~ ~|
 [F,,F,]2 [F,,F,] [F,,F,]2 [F,,A,] | [B,,B,]3- [B,,B,]2 [B,,B,] | %4
w: ~ ~ ~ ~|~ * ~|
 [B,,F,]2 [B,,F,] [B,,F,]2 [B,,B,] | [B,,B,]3 [B,,F,]2 [B,,G,] | [C,F,]2 [C,F,] [C,F,]2 [C,=E,] | %7
w: ~ ~ ~ ~|~ ~ ~|~ ~ ~ ~|
 F,3- F,2 F, | F,2 F, [F,C]2 [F,C] | [B,,B,]3 [B,,B,]2 [D,B,] | [F,A,]2 [F,A,] (A,G,)[F,A,] | %11
w: ~ * ~|~ ~ ~ ~|~ ~ ~|~ ~ ~ * ~|
 B,3- B,2 [B,,B,] | B,2 B, [F,A,]2 [F,A,] | [G,B,]3 [E,B,]2 [E,B,] | [F,B,]2 F, F,2 [F,,F,] | %15
w: ~ * ~|~ ~ ~ ~|~ ~ ~|~ ~ ~ ~|
 [B,,F,]3- [B,,F,]2 z || [B,,B,]2 [B,,B,] [F,A,]2 [F,A,] | [G,B,]2 [G,B,] [E,B,]2 [E,B,] | %18
w: ~ *|Wel- come, wel- come,|ev- er wel- come,|
 [F,B,]2 F, [F,,F,]2 [F,,A,] | [B,,B,]3- [B,,B,]3 | [B,,B,]2 [B,,B,] [F,A,]2 [F,A,] | %21
w: Bless- èd Sab- bath|day, *|Wel- come, wel- come,|
 [G,B,]2 [G,B,] [E,B,]2 [E,B,] | [F,B,]2 F, [F,,F,]2 [F,,F,] | [B,,F,]6 |] %24
w: ev- er wel- come,|Bless- èd Sab- bath|day.|
V:4
 x6 | x6 | x6 | x6 | x6 | x6 | x6 | F,3- F,2 F, | F,2 F, x3 | x6 | x3 F,2 x | B,3- B,2 x | %12
 B,2 B, x3 | x6 | x2 F, F,2 x | x6 || x6 | x6 | x2 F, x3 | x6 | x6 | x6 | x2 F, x3 | x6 |] %24

